X: 9
T: the Philosopher's Jigg
R: jig
M: 6/8
L: 1/8
Z: 2010,2014 John Chambers <jc:trillian.mit.edu>
B: Longman ed. "Twenty Four Country Dances", p.29 London 1770
K: D
|: dfa efg | fed cBA | BGB AFA | GEG FDA |\
   dfa afd | Ace ecA | Bcd edc | d3  D3 :|
|: DFA DFA | AB=c BAG | E^GB EGB | B^cd cBA |\
   Ace Ace | efg fed | Bcd edc | d3  D3 :|
% - - - - - - - - - - - - - - - - - - - - - - - - -
%%begintext align
%% Cast down one Cu: right Hands a Cross with the 3d Cu: .|
%% Cast up again and left hands a Cross with the 2d Cu: .|.
%% Cross over two Cu: :|.
%% lead up to the Top foot and Cast off :|:
%% set Contrary Corners & Turn :||:
%% Lead out Sides :||:
%%endtext
% - - - - - - - - - - - - - - - - - - - - - - - - -
